X: 20344
T: MONEY IN BOTH POCKETS
O: Country dance
%R: jig
B: W. Hamilton "Universal Tune-Book" Vol. 2 Glasgow 1846 p.34 #4
S: http://s3-eu-west-1.amazonaws.com/itma.dl.printmaterial/book_pdfs/hamiltonvol2web.pdf
Z: 2016 John Chambers <jc:trillian.mit.edu>
M: 6/8
L: 1/8
K: D
% - - - - - - - - - - - - - - - - - - - - - - - - -
c |\
d2F F>GF | A>BA AGF | d2F F>GF | A3 gfe |\
d2F F>GF | A>BA AGF | E>FE EFA | B3 A2 :|
|: c |\
dfa afd | cea ecA | dfa agf | (g3 f2)g |\
agf bag | agf ede | fdB AFA | B3 A2 :|
% - - - - - - - - - - - - - - - - - - - - - - - - -

%%sep 1 1 500
%%sep 1 1 500

